X:46.1
T:Ridees \`a 6 temps: Tune 1
R:Breton
G:sax
M:3/4
P:soprano: 4x (B music harmony = ^F6 | G6 | z4 B2 | A6)
K: Am
e|:"Am"eA e2 de | "F"fe dc BA| "G"Bc de d2 |1"Em"Bd cB "Am"Ae:|2 "Em"Bd cB "Am"A2||
|:"Am"EA Bc A2|"F"FA Bc A2|"Dm"BA Bc dc|1 "G"Bd cB BA:|2"Em"Bd cB "Am"A2|]

